dist/svg/dish-line.svg

<svg xmlns="http://www.w3.org/2000/svg" viewBox="0 0 24 24"><path d="M11.66 5.28c-.723.1-1.383.53-1.865 1.215-.202.288-.414.778-.46 1.066-.024.153-.043.176-.191.233a10.4 10.4 0 0 0-1.424.749 7.5 7.5 0 0 0-1.302 1.102 7.4 7.4 0 0 0-1.754 2.88c-.32.948-.424 1.677-.424 2.965v.75l-.63.001c-.861.001-1.03.049-1.237.354-.268.393-.049.993.408 1.12.226.063 18.212.063 18.438 0 .457-.127.676-.727.408-1.12-.207-.305-.376-.353-1.237-.354l-.63-.001v-.753c0-1.273-.107-2.023-.424-2.962a7.77 7.77 0 0 0-3.056-3.982 10.4 10.4 0 0 0-1.424-.749c-.148-.057-.167-.079-.191-.234-.044-.272-.238-.728-.438-1.03-.601-.903-1.589-1.384-2.567-1.25m.76 1.576c.18.085.541.402.497.437a4 4 0 0 1-.467-.019 8 8 0 0 0-.9 0 4 4 0 0 1-.467.019c-.01-.008.053-.088.14-.179.214-.223.5-.353.777-.353.149 0 .285.031.42.095m.72 2.002c.51.093 1.246.348 1.73.601a6.24 6.24 0 0 1 3.052 3.584c.241.733.285 1.046.307 2.187l.02 1.01H5.751l.021-1.03c.024-1.145.063-1.428.293-2.14.725-2.243 2.713-3.915 5.055-4.252.481-.07 1.529-.049 2.02.04" fill-rule="evenodd"/></svg>

<svg fill="none" xmlns="http://www.w3.org/2000/svg" viewBox="0 0 24 24"><path d="M11.660 5.280 C 10.937 5.380,10.277 5.810,9.795 6.495 C 9.593 6.783,9.381 7.273,9.335 7.561 C 9.311 7.714,9.292 7.737,9.144 7.794 C 8.815 7.920,8.051 8.322,7.720 8.543 C 7.237 8.867,6.879 9.170,6.418 9.645 C 5.599 10.489,5.042 11.403,4.664 12.525 C 4.344 13.473,4.240 14.202,4.240 15.490 L 4.240 16.240 3.610 16.241 C 2.749 16.242,2.580 16.290,2.373 16.595 C 2.105 16.988,2.324 17.588,2.781 17.715 C 3.007 17.778,20.993 17.778,21.219 17.715 C 21.676 17.588,21.895 16.988,21.627 16.595 C 21.420 16.290,21.251 16.242,20.390 16.241 L 19.760 16.240 19.760 15.487 C 19.760 14.214,19.653 13.464,19.336 12.525 C 18.787 10.897,17.721 9.508,16.280 8.543 C 15.949 8.322,15.185 7.920,14.856 7.794 C 14.708 7.737,14.689 7.715,14.665 7.560 C 14.621 7.288,14.427 6.832,14.227 6.530 C 13.626 5.627,12.638 5.146,11.660 5.280 M12.420 6.856 C 12.600 6.941,12.961 7.258,12.917 7.293 C 12.908 7.300,12.697 7.292,12.450 7.274 C 12.203 7.256,11.797 7.256,11.550 7.274 C 11.303 7.292,11.092 7.300,11.083 7.293 C 11.073 7.285,11.136 7.205,11.223 7.114 C 11.437 6.891,11.723 6.761,12.000 6.761 C 12.149 6.761,12.285 6.792,12.420 6.856 M13.140 8.858 C 13.650 8.951,14.386 9.206,14.870 9.459 C 16.323 10.218,17.416 11.501,17.922 13.043 C 18.163 13.776,18.207 14.089,18.229 15.230 L 18.249 16.240 12.000 16.240 L 5.751 16.240 5.772 15.210 C 5.796 14.065,5.835 13.782,6.065 13.070 C 6.790 10.827,8.778 9.155,11.120 8.818 C 11.601 8.748,12.649 8.769,13.140 8.858 " stroke="none" fill-rule="evenodd" fill="currentColor"/></svg>
